flaticon/game/chess-board.svg

<svg xmlns="http://www.w3.org/2000/svg" width="32" height="32" viewBox="0 0 24 24">
    <path d="M 16.285156 0 L 0 0 L 0 24 L 24 24 L 24 0 Z M 15.429688 21.25 L 13.535156 23.144531 L 12.605469 23.144531 L 15.429688 20.320312 Z M 15.429688 19.109375 L 11.394531 23.144531 L 10.464844 23.144531 L 15.429688 18.175781 Z M 7.714844 11.394531 L 3.679688 15.429688 L 2.75 15.429688 L 7.714844 10.464844 Z M 7.714844 12.605469 L 7.714844 13.535156 L 5.824219 15.429688 L 4.890625 15.429688 Z M 7.714844 14.75 L 7.714844 15.429688 L 7.035156 15.429688 Z M 8.570312 18.605469 L 10.890625 16.285156 L 11.824219 16.285156 L 8.570312 19.535156 Z M 8.570312 17.394531 L 8.570312 16.285156 L 9.679688 16.285156 Z M 8.570312 20.75 L 13.035156 16.285156 L 13.964844 16.285156 L 8.570312 21.679688 Z M 8.570312 15.429688 L 8.570312 8.570312 L 15.429688 8.570312 L 15.429688 15.429688 Z M 8.570312 3.175781 L 10.890625 0.855469 L 11.824219 0.855469 L 8.570312 4.109375 Z M 8.570312 5.320312 L 13.035156 0.855469 L 13.964844 0.855469 L 8.570312 6.25 Z M 15.429688 5.824219 L 13.535156 7.714844 L 12.605469 7.714844 L 15.429688 4.890625 Z M 15.429688 3.679688 L 11.394531 7.714844 L 10.464844 7.714844 L 15.429688 2.75 Z M 16.285156 13.035156 L 20.75 8.570312 L 21.679688 8.570312 L 16.285156 13.964844 Z M 16.285156 11.824219 L 16.285156 10.890625 L 18.605469 8.570312 L 19.535156 8.570312 Z M 16.285156 9.679688 L 16.285156 8.570312 L 17.394531 8.570312 Z M 14.75 7.714844 L 15.429688 7.035156 L 15.429688 7.714844 Z M 15.429688 1.535156 L 9.25 7.714844 L 8.570312 7.714844 L 8.570312 7.464844 L 15.175781 0.855469 L 15.429688 0.855469 Z M 9.679688 0.855469 L 8.570312 1.964844 L 8.570312 0.855469 Z M 0.855469 0.855469 L 7.714844 0.855469 L 7.714844 7.714844 L 0.855469 7.714844 Z M 0.855469 10.890625 L 3.175781 8.570312 L 4.109375 8.570312 L 0.855469 11.824219 Z M 0.855469 13.035156 L 5.320312 8.570312 L 6.25 8.570312 L 0.855469 13.964844 Z M 1.964844 8.570312 L 0.855469 9.679688 L 0.855469 8.570312 Z M 0.855469 15.175781 L 7.464844 8.570312 L 7.714844 8.570312 L 7.714844 9.25 L 1.535156 15.429688 L 0.855469 15.429688 Z M 7.714844 23.144531 L 0.855469 23.144531 L 0.855469 16.285156 L 7.714844 16.285156 Z M 8.570312 22.890625 L 15.175781 16.285156 L 15.429688 16.285156 L 15.429688 16.964844 L 9.25 23.144531 L 8.570312 23.144531 Z M 14.75 23.144531 L 15.429688 22.464844 L 15.429688 23.144531 Z M 23.144531 23.144531 L 16.285156 23.144531 L 16.285156 16.285156 L 23.144531 16.285156 Z M 23.144531 13.535156 L 21.25 15.429688 L 20.320312 15.429688 L 23.144531 12.605469 Z M 23.144531 11.394531 L 19.109375 15.429688 L 18.175781 15.429688 L 23.144531 10.464844 Z M 22.464844 15.429688 L 23.144531 14.75 L 23.144531 15.429688 Z M 23.144531 9.25 L 16.964844 15.429688 L 16.285156 15.429688 L 16.285156 15.175781 L 22.890625 8.570312 L 23.144531 8.570312 Z M 16.285156 7.714844 L 16.285156 0.855469 L 23.144531 0.855469 L 23.144531 7.714844 Z M 16.285156 7.714844"/>
</svg>

<svg xmlns="http://www.w3.org/2000/svg" width="32" height="32" viewBox="0 0 24 24">
    <path d="M16.285 0H0v24h24V0zm-.855 21.25l-1.895 1.895h-.93l2.825-2.825zm0-2.14l-4.035 4.035h-.93l4.965-4.97zm-7.715-7.715L3.68 15.43h-.93l4.965-4.965zm0 1.21v.93l-1.89 1.895H4.89zm0 2.145v.68h-.68zm.855 3.855l2.32-2.32h.934l-3.254 3.25zm0-1.21v-1.11h1.11zm0 3.355l4.465-4.465h.93L8.57 21.68zm0-5.32V8.57h6.86v6.86zm0-12.254l2.32-2.32h.934L8.57 4.108zm0 2.144L13.035.855h.93L8.57 6.25zm6.86.504l-1.895 1.89h-.93l2.825-2.823zm0-2.144l-4.035 4.035h-.93L15.43 2.75zm.855 9.355L20.75 8.57h.93l-5.395 5.395zm0-1.21v-.934l2.32-2.32h.93zm0-2.145V8.57h1.11zM14.75 7.715l.68-.68v.68zm.68-6.18l-6.18 6.18h-.68v-.25l6.606-6.61h.254zM9.68.855l-1.11 1.11V.855zm-8.825 0h6.86v6.86H.855zm0 10.036l2.32-2.32h.934L.855 11.823zm0 2.144L5.32 8.57h.93L.855 13.965zm1.11-4.465L.855 9.68V8.57zm-1.11 6.606l6.61-6.606h.25v.68l-6.18 6.18h-.68zm6.86 7.969H.855v-6.86h6.86zm.855-.254l6.606-6.606h.254v.68l-6.18 6.18h-.68zm6.18.254l.68-.68v.68zm8.395 0h-6.86v-6.86h6.86zm0-9.61L21.25 15.43h-.93l2.825-2.825zm0-2.14l-4.036 4.035h-.933l4.969-4.965zm-.68 4.035l.68-.68v.68zm.68-6.18l-6.18 6.18h-.68v-.254l6.606-6.606h.254zm-6.86-1.535V.855h6.86v6.86zm0 0"/>
</svg>
